trening/img/boxPink.svg

<svg width="30" height="30" viewBox="0 0 30 30" fill="none" xmlns="http://www.w3.org/2000/svg">
<path d="M29.887 14.8336L26.5896 10.9865L29.887 7.13952C29.979 7.03283 30.0175 6.89047 29.9928 6.75177C29.968 6.61306 29.882 6.49316 29.7589 6.42495L19.0829 0.494141C18.9012 0.392984 18.6741 0.424109 18.5253 0.571062L15.2826 3.78561L12.0695 0.572422C11.9193 0.422281 11.6868 0.391625 11.5032 0.498266L0.233993 7.02233C0.10265 7.09831 0.0161183 7.23336 0.00192612 7.38486C-0.0118191 7.53636 0.0486027 7.68472 0.163962 7.78358L3.98255 11.0565L0.687181 15.4502C0.605712 15.5582 0.575478 15.6965 0.603884 15.8292C0.631821 15.9615 0.716009 16.0751 0.834603 16.141L4.11777 17.965C4.10371 18.0096 4.08974 18.0546 4.08974 18.1039V22.4403C4.08974 23.0129 4.39781 23.5471 4.89449 23.8351L14.4334 29.342C14.6902 29.4898 14.9777 29.564 15.2656 29.564C15.2684 29.564 15.2711 29.5634 15.2739 29.5634C15.2765 29.5634 15.2786 29.5649 15.2811 29.5649C15.2861 29.5649 15.2902 29.5622 15.2952 29.562C15.5732 29.5571 15.8503 29.4847 16.0983 29.342L25.6079 23.8515C26.1219 23.554 26.4414 23.0001 26.4414 22.4068V17.5762L29.7758 15.5385C29.893 15.4667 29.9731 15.3472 29.9941 15.2117C30.0156 15.0762 29.9767 14.9375 29.887 14.8336ZM14.8124 16.1127L5.55121 10.9674L14.8124 5.30778V16.1127ZM15.7499 5.28875L25.0422 10.9674L15.7499 16.13V5.28875ZM18.9355 1.48475L28.8017 6.96556L25.8768 10.3785L16.0323 4.3625L18.9355 1.48475ZM11.6612 1.48977L14.5442 4.37286L4.66677 10.409L1.27588 7.50252L11.6612 1.48977ZM4.7504 11.5947L14.5792 17.0552L11.6067 21.0532L1.75974 15.5825L4.7504 11.5947ZM5.36371 23.0234C5.15634 22.9031 5.02724 22.6797 5.02724 22.4403V18.4703L11.5106 22.0722C11.5824 22.112 11.6602 22.1313 11.7376 22.1313C11.8818 22.1313 12.0232 22.0649 12.1144 21.9422L14.8124 18.3132V28.4784L5.36371 23.0234ZM25.5039 22.4068C25.5039 22.6669 25.3639 22.9094 25.1386 23.0399L15.7499 28.4607V18.3029L18.4805 21.9436C18.572 22.0658 18.7126 22.1313 18.8558 22.1313C18.9391 22.1313 19.0238 22.1088 19.0998 22.0626L25.5039 18.149V22.4068ZM18.9749 21.0404L15.994 17.0665L25.8659 11.5819L28.8172 15.0254L18.9749 21.0404Z" fill="#B40970"/>
</svg>

<svg width="30" height="30" fill="none" xmlns="http://www.w3.org/2000/svg"><path d="M29.887 14.834l-3.297-3.848 3.297-3.846a.468.468 0 00-.128-.715L19.083.495a.469.469 0 00-.558.076l-3.242 3.215L12.07.572a.468.468 0 00-.567-.074L.234 7.022a.47.47 0 00-.07.762l3.819 3.272L.687 15.45a.467.467 0 00.148.691l3.283 1.824a.458.458 0 00-.028.139v4.336c0 .573.308 1.107.804 1.395l9.54 5.507c.256.148.544.222.832.222h.015l.014-.002c.278-.005.555-.077.803-.22l9.51-5.49c.514-.298.833-.852.833-1.445v-4.83l3.335-2.039a.468.468 0 00.111-.704zm-15.075 1.279l-9.26-5.146 9.26-5.66v10.806zm.938-10.824l9.292 5.678-9.292 5.163V5.289zm3.186-3.804l9.866 5.48-2.925 3.414-9.845-6.016 2.904-2.878zm-7.275.005l2.883 2.883-9.877 6.036-3.391-2.906L11.66 1.49zm-6.91 10.105l9.828 5.46-2.972 3.998-9.847-5.47 2.99-3.988zm.613 11.428a.677.677 0 01-.337-.583v-3.97l6.484 3.602a.467.467 0 00.603-.13l2.698-3.629v10.165l-9.448-5.455zm20.14-.616c0 .26-.14.502-.365.633l-9.39 5.42V18.304l2.731 3.64a.468.468 0 00.62.12l6.404-3.914v4.258zm-6.53-1.367l-2.98-3.973 9.872-5.485 2.951 3.443-9.842 6.015z" fill="#B40970"/></svg>
